Origami/16x16/apps/chrome-macmgoeeggnlnmpiojbcniblabkdjphe-Default.svg

<svg xmlns="http://www.w3.org/2000/svg" width="16" height="16" version="1">
 <path style="fill:#70b943" d="M 16,15.2 16,0.8 C 16,0.3568 15.6432,0 15.2,0 L 0.8,0 C 0.3568,0 0,0.3568 0,0.8 L 0,15.2 C 0,15.6432 0.3568,16 0.8,16 l 14.4,0 c 0.4432,0 0.8,-0.3568 0.8,-0.8 z"/>
 <path style="fill:#ffffff" d="m 6.25,4 c -0.2381349,-9e-6 -0.462123,0.1130723 -0.6035156,0.3046875 -0.018492,0.02113 -0.046057,0.031597 -0.0625,0.054687 l -0.00586,0.00781 L 2.65039,7.796872 C 2.618785,7.831838 2.588174,7.867659 2.558593,7.9042939 l -0.019531,0.025391 0,0.00195 C 2.1906455,8.3732517 2.0010694,8.9158722 2,9.4746094 2.0005194,10.869815 3.1521453,12.000454 4.5722656,12 5.531791,11.9984 6.4105705,11.471999 6.8515625,10.634766 c 0.012264,0.0093 0.024635,0.01837 0.037109,0.02734 0.030084,0.0197 0.060694,0.03859 0.091797,0.05664 0.03015,0.01773 0.060759,0.03466 0.091797,0.05078 0.025754,0.01359 0.051802,0.02661 0.078125,0.03906 0.03472,0.01598 0.069891,0.03096 0.1054688,0.04492 0.027112,0.01102 0.054462,0.02143 0.082031,0.03125 0.030342,0.01116 0.06095,0.02158 0.091797,0.03125 0.034901,0.01007 0.070071,0.01919 0.1054687,0.02734 0.034939,0.0088 0.070108,0.01658 0.1054688,0.02344 0.020781,0.0036 0.041616,0.0068 0.0625,0.0098 0.046676,0.0069 0.09358,0.01208 0.140625,0.01563 C 7.895711,10.996787 7.9478347,10.9994 8,11 c 0.052165,-5.65e-4 0.1042885,-0.0032 0.15625,-0.0078 0.047045,-0.0035 0.093949,-0.0088 0.140625,-0.01563 0.020884,-0.0029 0.041719,-0.0062 0.0625,-0.0098 0.035361,-0.0069 0.07053,-0.01468 0.1054688,-0.02344 0.035398,-0.0082 0.070567,-0.01727 0.1054687,-0.02734 0.030847,-0.0097 0.061455,-0.02009 0.091797,-0.03125 0.027569,-0.0098 0.054919,-0.02023 0.082031,-0.03125 0.035578,-0.01396 0.070749,-0.02894 0.1054688,-0.04492 0.026323,-0.01245 0.052371,-0.02548 0.078125,-0.03906 0.031038,-0.01612 0.061647,-0.03305 0.091797,-0.05078 0.031103,-0.01805 0.061713,-0.03694 0.091797,-0.05664 0.013129,-0.009 0.02615,-0.01807 0.039063,-0.02734 C 9.5910583,11.471388 10.468911,11.997648 11.427734,12 12.847855,12.000454 13.999481,10.869815 14,9.4746094 13.998931,8.9158723 13.809354,8.3732465 13.460938,7.9316406 l 0,-0.00195 -0.01953,-0.025391 c -0.02958,-0.036635 -0.06019,-0.072456 -0.0918,-0.1074219 l -2.927734,-3.4296875 -0.0059,-0.00781 c -0.01644,-0.023091 -0.04401,-0.033557 -0.0625,-0.054687 C 10.212123,4.1130722 9.9881351,3.9999908 9.75,4 9.739571,4.0004335 9.729152,4.00108 9.71875,4.00195 9.71729,4.0019407 9.71631,4 9.71484,4 L 9.71289,4.00195 C 9.3139907,4.0217142 9.0005509,4.3506113 9,4.75 9.0009709,5.127229 9.2819783,5.445035 9.65625,5.4921875 9.65625,5.4921875 9,5 8,5 7,5 6.3613281,5.4902344 6.3613281,5.4902344 6.7278893,5.4352142 6.9992798,5.1206667 7,4.75 6.9995029,4.3513285 6.6871932,4.0227169 6.2890625,4.0019531 6.2873864,4.0019142 6.2868564,3.9999995 6.2851562,4 c -0.00212,2.8e-6 -0.00374,0.00193 -0.00586,0.00195 C 6.2695449,4.001111 6.2597774,4.0004598 6.25,4 Z M 4.5,8 C 5.328427,8 5.9999999,8.6715728 6,9.5 5.9999999,10.328427 5.328427,11 4.5,11 3.671573,11 3.0000001,10.328427 3,9.5 3.0000001,8.6715728 3.671573,8 4.5,8 Z M 8,8 c 0.026083,2.826e-4 0.052144,0.00159 0.078125,0.00391 0.023522,0.00177 0.046974,0.00438 0.070312,0.00781 0.010437,0.00114 0.020855,0.00244 0.03125,0.00391 0.017681,0.00343 0.035265,0.00734 0.052734,0.011719 0.017699,0.00408 0.035284,0.00864 0.052734,0.013672 0.015096,0.00485 0.030074,0.010061 0.044922,0.015625 0.013785,0.00491 0.02746,0.010117 0.041016,0.015625 0.0178,0.0073 0.035385,0.01512 0.052734,0.023437 0.013162,0.00623 0.026185,0.012737 0.039063,0.019531 0.015848,0.00805 0.031478,0.016512 0.046875,0.025391 0.015211,0.00872 0.03019,0.017837 0.044922,0.027344 0.00989,0.00698 0.019662,0.014146 0.029297,0.021484 0.017312,0.011834 0.034247,0.02421 0.050781,0.037109 0.011304,0.010163 0.022374,0.020582 0.033203,0.03125 0.013326,0.011375 0.026352,0.023097 0.039062,0.035156 0.012033,0.012068 0.023756,0.024442 0.035156,0.037109 0.010032,0.011494 0.019801,0.023216 0.029297,0.035156 0.01356,0.016505 0.026587,0.033441 0.039063,0.050781 0.00666,0.009 0.013174,0.018121 0.019531,0.027344 0.010196,0.015352 0.019965,0.030983 0.029297,0.046875 0.00885,0.014753 0.017315,0.029732 0.025391,0.044922 0.00679,0.012877 0.013306,0.025901 0.019531,0.039063 0.00766,0.017371 0.014825,0.034956 0.021484,0.052734 0.00551,0.013556 0.010717,0.027231 0.015625,0.041016 0.00559,0.015494 0.010803,0.031124 0.015625,0.046875 0.00504,0.017451 0.00959,0.035035 0.013672,0.052734 0.00438,0.017469 0.00829,0.035054 0.011719,0.052734 0.00212,0.010385 0.00407,0.020803 0.00586,0.03125 0.00343,0.023338 0.00604,0.046791 0.00781,0.070312 C 8.9984171,8.9478528 8.9997173,8.9739174 9,9 8.9997173,9.026083 8.99841,9.052144 8.99609,9.078125 8.99432,9.101647 8.99171,9.125099 8.98828,9.148437 8.98649,9.158884 8.98454,9.169302 8.98242,9.179687 8.97899,9.197368 8.97508,9.214952 8.970701,9.232421 8.966621,9.25012 8.962061,9.267705 8.957029,9.285155 8.952179,9.300251 8.946968,9.315229 8.941404,9.330077 8.936494,9.343862 8.931287,9.357537 8.925779,9.371093 8.919119,9.388871 8.911955,9.406457 8.904295,9.423827 8.898065,9.436989 8.891558,9.450012 8.884764,9.46289 8.876714,9.478738 8.868252,9.494368 8.859373,9.509765 8.850013,9.524998 8.840242,9.539978 8.830076,9.554687 8.823736,9.564567 8.817227,9.574334 8.810545,9.583984 8.79807,9.601324 8.785043,9.61826 8.771482,9.634765 8.761962,9.646048 8.752195,9.657118 8.742185,9.667968 8.73081,9.681294 8.719088,9.69432 8.707029,9.70703 8.694318,9.719089 8.681293,9.730812 8.667967,9.742186 8.657117,9.752196 8.646046,9.761964 8.634764,9.771483 8.618259,9.785043 8.601323,9.79807 8.583983,9.810546 8.574333,9.817226 8.564566,9.823739 8.554686,9.830077 8.539977,9.840243 8.524997,9.850012 8.509764,9.859374 8.494367,9.868254 8.478737,9.876719 8.462889,9.884765 8.450012,9.891555 8.436988,9.898071 8.423826,9.904296 8.406455,9.911956 8.38887,9.919121 8.371092,9.92578 8.357536,9.93129 8.343861,9.936497 8.330076,9.941405 8.315228,9.946965 8.30025,9.952179 8.285154,9.95703 8.267703,9.96207 8.250119,9.96662 8.23242,9.970702 8.214951,9.975082 8.197366,9.978992 8.179686,9.982421 8.169301,9.984541 8.158883,9.986491 8.148436,9.988281 8.125098,9.991711 8.101645,9.994321 8.078124,9.996091 8.0521452,9.9984171 8.0260826,9.9997174 8,10 7.973917,9.9997174 7.947856,9.9984137 7.921875,9.9960938 7.898353,9.9943238 7.874899,9.9917138 7.851563,9.9882838 7.841116,9.9864938 7.830698,9.9845438 7.820313,9.9824238 7.802633,9.9789938 7.785048,9.9750838 7.767579,9.9707048 7.74988,9.9666248 7.732295,9.9620648 7.714845,9.9570328 7.699094,9.9522128 7.683464,9.9470018 7.66797,9.9414078 7.654185,9.9364978 7.64051,9.9312908 7.626954,9.9257828 7.609176,9.9191228 7.59159,9.9119588 7.57422,9.9042988 7.561059,9.8980688 7.548035,9.8915618 7.535157,9.8847678 7.519967,9.8766878 7.504988,9.8682258 7.490235,9.8593768 7.474343,9.8500468 7.458712,9.8402758 7.44336,9.8300798 7.43414,9.8237198 7.425021,9.8172118 7.416016,9.8105488 7.398676,9.7980738 7.38174,9.7850468 7.365235,9.7714858 7.353294,9.7619858 7.341572,9.7522218 7.330079,9.7421888 7.317412,9.7307878 7.305038,9.7190658 7.29297,9.7070328 7.280911,9.6943218 7.269188,9.6812968 7.257814,9.6679708 7.247146,9.6571418 7.236727,9.6460718 7.226564,9.6347678 7.213665,9.6182338 7.201289,9.6012988 7.189455,9.5839868 7.182115,9.5743568 7.174954,9.5645848 7.167971,9.5546898 7.158461,9.5399578 7.149346,9.5249788 7.140627,9.5097678 7.131747,9.4943708 7.123282,9.4787408 7.115236,9.4628928 7.108446,9.4500158 7.10193,9.4369918 7.095705,9.4238298 7.087385,9.4064808 7.079571,9.3888958 7.072268,9.3710958 7.066758,9.3575398 7.061551,9.3438648 7.056643,9.3300798 7.051083,9.3152318 7.04587,9.3002538 7.041018,9.2851578 7.035978,9.2677068 7.031428,9.2501228 7.027346,9.2324238 7.022966,9.2149548 7.019056,9.1973698 7.015627,9.1796898 7.014157,9.1692948 7.012857,9.1588768 7.011717,9.1484398 7.008287,9.1251018 7.005677,9.1016488 7.003907,9.0781278 7.0015849,9.0521452 7.0002827,9.0260826 7,9 7.0002827,8.973917 7.00159,8.947856 7.00391,8.921875 7.00568,8.898353 7.00829,8.874901 7.01172,8.851563 7.01351,8.841116 7.01546,8.830698 7.01758,8.820313 7.02101,8.802632 7.02492,8.785048 7.029299,8.767579 7.033379,8.74988 7.037939,8.732295 7.042971,8.714845 7.047791,8.699094 7.053002,8.683464 7.058596,8.66797 7.063506,8.654185 7.068713,8.64051 7.074221,8.626954 7.080881,8.609175 7.088045,8.59159 7.095705,8.57422 7.101935,8.561058 7.108442,8.548034 7.115236,8.535157 7.123316,8.519967 7.131778,8.504988 7.140627,8.490235 7.149957,8.474343 7.159728,8.458712 7.169924,8.44336 7.176284,8.43414 7.182792,8.425021 7.189455,8.416016 7.20193,8.398676 7.214957,8.38174 7.228518,8.365235 7.238018,8.353294 7.247782,8.341572 7.257815,8.330079 7.269216,8.317412 7.280938,8.305038 7.292971,8.29297 7.305682,8.280911 7.318707,8.269188 7.332033,8.257814 7.342862,8.247146 7.353932,8.236727 7.365236,8.226564 7.38177,8.213665 7.398705,8.201289 7.416017,8.189455 7.425647,8.182115 7.435419,8.174954 7.445314,8.167971 7.460046,8.158461 7.475025,8.149346 7.490236,8.140627 7.505633,8.131747 7.521263,8.123282 7.537111,8.115236 7.549988,8.108446 7.563011,8.10193 7.576174,8.095705 7.593523,8.087385 7.611108,8.079571 7.628908,8.072268 7.642464,8.066758 7.656139,8.061551 7.669924,8.056643 7.684772,8.051083 7.69975,8.045869 7.714846,8.041018 7.732297,8.035978 7.749881,8.031428 7.76758,8.027346 7.785049,8.022966 7.802634,8.019056 7.820314,8.015627 7.830709,8.014157 7.841128,8.012857 7.851564,8.011717 7.874902,8.008287 7.898355,8.005677 7.921876,8.003907 7.9478548,8.0015849 7.9739174,8.0002826 8,8 Z m 3.5,0 C 12.328427,8 13,8.6715728 13,9.5 13,10.328427 12.328427,11 11.5,11 10.671573,11 10,10.328427 10,9.5 10,8.6715728 10.671573,8 11.5,8 Z"/>
</svg>

<svg width="16" height="16" version="1" xmlns="http://www.w3.org/2000/svg">
 <path d="m16 15.2v-14.4c0-0.4432-0.3568-0.8-0.8-0.8h-14.4c-0.4432 0-0.8 0.3568-0.8 0.8v14.4c0 0.4432 0.3568 0.8 0.8 0.8h14.4c0.4432 0 0.8-0.3568 0.8-0.8z" style="fill:#70b943"/>
 <path d="m6.25 4c-0.2381349-9e-6 -0.462123 0.1130723-0.6035156 0.3046875-0.018492 0.02113-0.046057 0.031597-0.0625 0.054687l-0.00586 0.00781-2.9277344 3.4296875c-0.031605 0.034966-0.062216 0.070787-0.091797 0.1074219l-0.019531 0.025391v0.00195c-0.3484165 0.4416168-0.5379926 0.9842373-0.539062 1.5429745 5.194e-4 1.3952056 1.1521453 2.5258446 2.5722656 2.5253906 0.9595254-0.0016 1.8383049-0.528001 2.2792969-1.365234 0.012264 0.0093 0.024635 0.01837 0.037109 0.02734 0.030084 0.0197 0.060694 0.03859 0.091797 0.05664 0.03015 0.01773 0.060759 0.03466 0.091797 0.05078 0.025754 0.01359 0.051802 0.02661 0.078125 0.03906 0.03472 0.01598 0.069891 0.03096 0.1054688 0.04492 0.027112 0.01102 0.054462 0.02143 0.082031 0.03125 0.030342 0.01116 0.06095 0.02158 0.091797 0.03125 0.034901 0.01007 0.070071 0.01919 0.1054687 0.02734 0.034939 0.0088 0.070108 0.01658 0.1054688 0.02344 0.020781 0.0036 0.041616 0.0068 0.0625 0.0098 0.046676 0.0069 0.09358 0.01208 0.140625 0.01563 0.0519612 0.004571 0.1040849 0.007184 0.1562502 0.007784 0.052165-5.65e-4 0.1042885-0.0032 0.15625-0.0078 0.047045-0.0035 0.093949-0.0088 0.140625-0.01563 0.020884-0.0029 0.041719-0.0062 0.0625-0.0098 0.035361-0.0069 0.07053-0.01468 0.1054688-0.02344 0.035398-0.0082 0.070567-0.01727 0.1054687-0.02734 0.030847-0.0097 0.061455-0.02009 0.091797-0.03125 0.027569-0.0098 0.054919-0.02023 0.082031-0.03125 0.035578-0.01396 0.070749-0.02894 0.1054688-0.04492 0.026323-0.01245 0.052371-0.02548 0.078125-0.03906 0.031038-0.01612 0.061647-0.03305 0.091797-0.05078 0.031103-0.01805 0.061713-0.03694 0.091797-0.05664 0.013129-9e-3 0.02615-0.01807 0.039063-0.02734 0.440667 0.836638 1.3185197 1.362898 2.2773427 1.36525 1.420121 4.54e-4 2.571747-1.130185 2.572266-2.5253906-0.001069-0.5587371-0.190646-1.1013629-0.539062-1.5429688v-0.00195l-0.01953-0.025391c-0.02958-0.036635-0.06019-0.072456-0.0918-0.1074219l-2.927734-3.4296875-0.0059-0.00781c-0.01644-0.023091-0.04401-0.033557-0.0625-0.054687-0.141351-0.191621-0.3653389-0.3047024-0.603474-0.3046932-0.010429 4.335e-4 -0.020848 0.00108-0.03125 0.00195-0.00146-9.3e-6 -0.00244-0.00195-0.00391-0.00195l-0.00195 0.00195c-0.3988993 0.0197642-0.7123391 0.3486613-0.71289 0.74805 9.709e-4 0.377229 0.2819783 0.695035 0.65625 0.7421875 0 0-0.65625-0.4921875-1.65625-0.4921875s-1.6386719 0.4902344-1.6386719 0.4902344c0.3665612-0.0550202 0.6379517-0.3695677 0.6386719-0.7402344-4.971e-4 -0.3986715-0.3128068-0.7272831-0.7109375-0.7480469-0.0016761-3.89e-5 -0.0022061-0.0019536-0.0039063-0.0019531-0.00212 2.8e-6 -0.00374 0.00193-0.00586 0.00195-0.0097513-8.39e-4 -0.0195188-0.0014902-0.0292962-0.00195zm-1.75 4c0.828427 0 1.4999999 0.6715728 1.5 1.5-1e-7 0.828427-0.671573 1.5-1.5 1.5s-1.4999999-0.671573-1.5-1.5c1e-7 -0.8284272 0.671573-1.5 1.5-1.5zm3.5 0c0.026083 2.826e-4 0.052144 0.00159 0.078125 0.00391 0.023522 0.00177 0.046974 0.00438 0.070312 0.00781 0.010437 0.00114 0.020855 0.00244 0.03125 0.00391 0.017681 0.00343 0.035265 0.00734 0.052734 0.011719 0.017699 0.00408 0.035284 0.00864 0.052734 0.013672 0.015096 0.00485 0.030074 0.010061 0.044922 0.015625 0.013785 0.00491 0.02746 0.010117 0.041016 0.015625 0.0178 0.0073 0.035385 0.01512 0.052734 0.023437 0.013162 0.00623 0.026185 0.012737 0.039063 0.019531 0.015848 0.00805 0.031478 0.016512 0.046875 0.025391 0.015211 0.00872 0.03019 0.017837 0.044922 0.027344 0.00989 0.00698 0.019662 0.014146 0.029297 0.021484 0.017312 0.011834 0.034247 0.02421 0.050781 0.037109 0.011304 0.010163 0.022374 0.020582 0.033203 0.03125 0.013326 0.011375 0.026352 0.023097 0.039062 0.035156 0.012033 0.012068 0.023756 0.024442 0.035156 0.037109 0.010032 0.011494 0.019801 0.023216 0.029297 0.035156 0.01356 0.016505 0.026587 0.033441 0.039063 0.050781 0.00666 9e-3 0.013174 0.018121 0.019531 0.027344 0.010196 0.015352 0.019965 0.030983 0.029297 0.046875 0.00885 0.014753 0.017315 0.029732 0.025391 0.044922 0.00679 0.012877 0.013306 0.025901 0.019531 0.039063 0.00766 0.017371 0.014825 0.034956 0.021484 0.052734 0.00551 0.013556 0.010717 0.027231 0.015625 0.041016 0.00559 0.015494 0.010803 0.031124 0.015625 0.046875 0.00504 0.017451 0.00959 0.035035 0.013672 0.052734 0.00438 0.017469 0.00829 0.035054 0.011719 0.052734 0.00212 0.010385 0.00407 0.020803 0.00586 0.03125 0.00343 0.023338 0.00604 0.046791 0.00781 0.070312 0.0023261 0.0259748 0.0036263 0.0520394 0.003909 0.078122-2.827e-4 0.026083-0.00159 0.052144-0.00391 0.078125-0.00177 0.023522-0.00438 0.046974-0.00781 0.070312-0.00179 0.010447-0.00374 0.020865-0.00586 0.03125-0.00343 0.017681-0.00734 0.035265-0.011719 0.052734-0.00408 0.017699-0.00864 0.035284-0.013672 0.052734-0.00485 0.015096-0.010061 0.030074-0.015625 0.044922-0.00491 0.013785-0.010117 0.02746-0.015625 0.041016-0.00666 0.017778-0.013824 0.035364-0.021484 0.052734-0.00623 0.013162-0.012737 0.026185-0.019531 0.039063-0.00805 0.015848-0.016512 0.031478-0.025391 0.046875-0.00936 0.015233-0.019131 0.030213-0.029297 0.044922-0.00634 0.00988-0.012849 0.019647-0.019531 0.029297-0.012475 0.01734-0.025502 0.034276-0.039063 0.050781-0.00952 0.011283-0.019287 0.022353-0.029297 0.033203-0.011375 0.013326-0.023097 0.026352-0.035156 0.039062-0.012711 0.012059-0.025736 0.023782-0.039062 0.035156-0.01085 0.01001-0.021921 0.019778-0.033203 0.029297-0.016505 0.01356-0.033441 0.026587-0.050781 0.039063-0.00965 0.00668-0.019417 0.013193-0.029297 0.019531-0.014709 0.010166-0.029689 0.019935-0.044922 0.029297-0.015397 0.00888-0.031027 0.017345-0.046875 0.025391-0.012877 0.00679-0.025901 0.013306-0.039063 0.019531-0.017371 0.00766-0.034956 0.014825-0.052734 0.021484-0.013556 0.00551-0.027231 0.010717-0.041016 0.015625-0.014848 0.00556-0.029826 0.010774-0.044922 0.015625-0.017451 0.00504-0.035035 0.00959-0.052734 0.013672-0.017469 0.00438-0.035054 0.00829-0.052734 0.011719-0.010385 0.00212-0.020803 0.00407-0.03125 0.00586-0.023338 0.00343-0.046791 0.00604-0.070312 0.00781-0.0259788 0.0023261-0.0520414 0.0036264-0.078124 0.003909-0.026083-2.826e-4 -0.052144-0.0015863-0.078125-0.0039062-0.023522-0.00177-0.046976-0.00438-0.070312-0.00781-0.010447-0.00179-0.020865-0.00374-0.03125-0.00586-0.01768-0.00343-0.035265-0.00734-0.052734-0.011719-0.017699-0.00408-0.035284-0.00864-0.052734-0.013672-0.015751-0.00482-0.031381-0.010031-0.046875-0.015625-0.013785-0.00491-0.02746-0.010117-0.041016-0.015625-0.017778-0.00666-0.035364-0.013824-0.052734-0.021484-0.013161-0.00623-0.026185-0.012737-0.039063-0.019531-0.01519-0.00808-0.030169-0.016542-0.044922-0.025391-0.015892-0.00933-0.031523-0.019101-0.046875-0.029297-0.00922-0.00636-0.018339-0.012868-0.027344-0.019531-0.01734-0.012475-0.034276-0.025502-0.050781-0.039063-0.011941-0.0095-0.023663-0.019264-0.035156-0.029297-0.012667-0.011401-0.025041-0.023123-0.037109-0.035156-0.012059-0.012711-0.023782-0.025736-0.035156-0.039062-0.010668-0.010829-0.021087-0.021899-0.03125-0.033203-0.012899-0.016534-0.025275-0.033469-0.037109-0.050781-0.00734-0.00963-0.014501-0.019402-0.021484-0.029297-0.00951-0.014732-0.018625-0.029711-0.027344-0.044922-0.00888-0.015397-0.017345-0.031027-0.025391-0.046875-0.00679-0.012877-0.013306-0.025901-0.019531-0.039063-0.00832-0.017349-0.016134-0.034934-0.023437-0.052734-0.00551-0.013556-0.010717-0.027231-0.015625-0.041016-0.00556-0.014848-0.010773-0.029826-0.015625-0.044922-0.00504-0.017451-0.00959-0.035035-0.013672-0.052734-0.00438-0.017469-0.00829-0.035054-0.011719-0.052734-0.00147-0.010395-0.00277-0.020813-0.00391-0.03125-0.00343-0.023338-0.00604-0.046791-0.00781-0.070312-0.0023221-0.0259826-0.0036243-0.0520452-0.003907-0.0781278 2.827e-4 -0.026083 0.00159-0.052144 0.00391-0.078125 0.00177-0.023522 0.00438-0.046974 0.00781-0.070312 0.00179-0.010447 0.00374-0.020865 0.00586-0.03125 0.00343-0.017681 0.00734-0.035265 0.011719-0.052734 0.00408-0.017699 0.00864-0.035284 0.013672-0.052734 0.00482-0.015751 0.010031-0.031381 0.015625-0.046875 0.00491-0.013785 0.010117-0.02746 0.015625-0.041016 0.00666-0.017779 0.013824-0.035364 0.021484-0.052734 0.00623-0.013162 0.012737-0.026186 0.019531-0.039063 0.00808-0.01519 0.016542-0.030169 0.025391-0.044922 0.00933-0.015892 0.019101-0.031523 0.029297-0.046875 0.00636-0.00922 0.012868-0.018339 0.019531-0.027344 0.012475-0.01734 0.025502-0.034276 0.039063-0.050781 0.0095-0.011941 0.019264-0.023663 0.029297-0.035156 0.011401-0.012667 0.023123-0.025041 0.035156-0.037109 0.012711-0.012059 0.025736-0.023782 0.039062-0.035156 0.010829-0.010668 0.021899-0.021087 0.033203-0.03125 0.016534-0.012899 0.033469-0.025275 0.050781-0.037109 0.00963-0.00734 0.019402-0.014501 0.029297-0.021484 0.014732-0.00951 0.029711-0.018625 0.044922-0.027344 0.015397-0.00888 0.031027-0.017345 0.046875-0.025391 0.012877-0.00679 0.0259-0.013306 0.039063-0.019531 0.017349-0.00832 0.034934-0.016134 0.052734-0.023437 0.013556-0.00551 0.027231-0.010717 0.041016-0.015625 0.014848-0.00556 0.029826-0.010774 0.044922-0.015625 0.017451-0.00504 0.035035-0.00959 0.052734-0.013672 0.017469-0.00438 0.035054-0.00829 0.052734-0.011719 0.010395-0.00147 0.020814-0.00277 0.03125-0.00391 0.023338-0.00343 0.046791-0.00604 0.070312-0.00781 0.0259788-0.0023221 0.0520414-0.0036244 0.078124-0.003907zm3.5 0c0.828427 0 1.5 0.6715728 1.5 1.5 0 0.828427-0.671573 1.5-1.5 1.5s-1.5-0.671573-1.5-1.5c0-0.8284272 0.671573-1.5 1.5-1.5z" style="fill:#ffffff"/>
</svg>
